azure-patterns/application-resources.svg

<svg xmlns="http://www.w3.org/2000/svg" viewBox="0 0 215.571 56.019"><path d="M4.3 13.1a28.008 28.008 0 1051.72 14.909H28.01z" fill="#6ec2e9"/><path d="M28.01 0v28.009h28.01A28.01 28.01 0 0028.01 0z" fill="#442359"/><path d="M28.01 28.009V0A27.919 27.919 0 008.2 8.2z" fill="#019e4a"/><path fill="#fff" d="M72.421 7.602h48.058V55.66H72.421z"/><path fill="#fdb813" d="M75.363 34.571h7.854V52.34h-7.854z"/><path fill="#6ec2e9" d="M97.991 29.331h7.854V52.34h-7.854z"/><path fill="#0a8b44" d="M109.305 13.888h7.854V52.34h-7.854z"/><path fill="#442359" d="M86.678 26.477h7.853v25.862h-7.853z"/><path fill="#ff8c00" d="M138.996 22.448h15.978v4.674h-15.978z"/><path fill="#333" d="M138.996 29.294h15.978v4.674h-15.978z"/><path fill="#00b294" d="M138.996 36.14h15.978v4.674h-15.978z"/><path fill="#333" d="M138.996 42.985h15.978v4.674h-15.978z"/><path fill="#ff8c00" d="M199.593 10.252h15.978v4.674h-15.978z"/><path fill="#333" d="M199.593 17.098h15.978v4.675h-15.978z"/><path fill="#00b294" d="M199.593 39.563h15.978v4.675h-15.978z"/><path fill="#ff8c00" d="M199.593 46.409h15.978v4.674h-15.978zm-28.674-23.951h15.979v4.675h-15.979z"/><path fill="#00b294" d="M170.919 29.301h15.979v4.674h-15.979z"/><path fill="#ff8c00" d="M170.919 36.144h15.979v4.674h-15.979z"/><path fill="#333" d="M170.919 4.277h15.979v4.674h-15.979zm0 38.708h15.979v4.674h-15.979z"/><path fill="none" stroke="#333" stroke-miterlimit="10" stroke-width=".456" d="M154.974 22.448l15.945-13.497m-15.945 20.343l15.945 4.681m15.979-4.674l12.695-7.529m-12.695 5.361l12.695-16.881m0 33.985l-12.695-8.093m12.695 14.939l-12.695-8.098m-31.924-6.845l15.945 4.677m-15.945 6.842l15.945-4.674m0-15.852l-15.945-.011"/></svg>

<svg xmlns="http://www.w3.org/2000/svg" viewBox="0 0 215.571 56.019"><path d="M4.3 13.1a28.008 28.008 0 1051.72 14.909H28.01z" fill="#6ec2e9"/><path d="M28.01 0v28.009h28.01A28.01 28.01 0 0028.01 0z" fill="#442359"/><path d="M28.01 28.009V0A27.919 27.919 0 008.2 8.2z" fill="#019e4a"/><path fill="#fff" d="M72.421 7.602h48.058V55.66H72.421z"/><path fill="#fdb813" d="M75.363 34.571h7.854V52.34h-7.854z"/><path fill="#6ec2e9" d="M97.991 29.331h7.854V52.34h-7.854z"/><path fill="#0a8b44" d="M109.305 13.888h7.854V52.34h-7.854z"/><path fill="#442359" d="M86.678 26.477h7.853v25.862h-7.853z"/><path fill="#ff8c00" d="M138.996 22.448h15.978v4.674h-15.978z"/><path fill="#333" d="M138.996 29.294h15.978v4.674h-15.978z"/><path fill="#00b294" d="M138.996 36.14h15.978v4.674h-15.978z"/><path fill="#333" d="M138.996 42.985h15.978v4.674h-15.978z"/><path fill="#ff8c00" d="M199.593 10.252h15.978v4.674h-15.978z"/><path fill="#333" d="M199.593 17.098h15.978v4.675h-15.978z"/><path fill="#00b294" d="M199.593 39.563h15.978v4.675h-15.978z"/><path fill="#ff8c00" d="M199.593 46.409h15.978v4.674h-15.978zM170.919 22.458h15.979v4.675h-15.979z"/><path fill="#00b294" d="M170.919 29.301h15.979v4.674h-15.979z"/><path fill="#ff8c00" d="M170.919 36.144h15.979v4.674h-15.979z"/><path fill="#333" d="M170.919 4.277h15.979v4.674h-15.979zM170.919 42.985h15.979v4.674h-15.979z"/><path fill="none" stroke="#333" stroke-miterlimit="10" stroke-width=".456" d="M154.974 22.448l15.945-13.497M154.974 29.294l15.945 4.681M186.898 29.301l12.695-7.529M186.898 27.133l12.695-16.881M199.593 44.237l-12.695-8.093M199.593 51.083l-12.695-8.098M154.974 36.14l15.945 4.677M154.974 47.659l15.945-4.674M170.919 27.133l-15.945-.011"/></svg>
